dist/assets/img/svg/address.svg

<svg width="20" height="30" viewBox="0 0 20 30" fill="none" xmlns="http://www.w3.org/2000/svg">
<path d="M10.0934 6.57449C8.0809 6.57449 6.44287 8.29537 6.44287 10.4096C6.44287 12.5239 8.0809 14.2447 10.0934 14.2447C12.1058 14.2447 13.7439 12.5239 13.7439 10.4096C13.7439 8.29537 12.1058 6.57449 10.0934 6.57449ZM10.0934 13.149C8.65559 13.149 7.48587 11.9201 7.48587 10.4096C7.48587 8.89913 8.65559 7.67024 10.0934 7.67024C11.5311 7.67024 12.7009 8.89913 12.7009 10.4096C12.7009 11.9201 11.5311 13.149 10.0934 13.149Z" fill="black"/>
<path d="M17.0725 3.07741C15.1837 1.09301 12.6721 0 10.001 0C7.32937 0 4.81836 1.09301 2.92949 3.07741C-0.566114 6.74927 -1.00052 13.658 1.98871 17.8437L10.001 30L18.0013 17.8607C21.0025 13.658 20.5681 6.74927 17.0725 3.07741ZM17.1555 17.2203L10.001 28.0748L2.8351 17.2033C0.123829 13.4054 0.512345 7.16621 3.66741 3.85211C5.35915 2.0748 7.60838 1.09575 10.001 1.09575C12.3936 1.09575 14.6429 2.0748 16.3351 3.85211C19.4902 7.16621 19.8787 13.4054 17.1555 17.2203Z" fill="black"/>
</svg>

<svg width="20" height="30" fill="none" xmlns="http://www.w3.org/2000/svg"><path d="M10.093 6.574c-2.012 0-3.65 1.721-3.65 3.836 0 2.114 1.638 3.835 3.65 3.835 2.013 0 3.65-1.721 3.65-3.835 0-2.115-1.637-3.836-3.65-3.836zm0 6.575c-1.437 0-2.607-1.229-2.607-2.74 0-1.51 1.17-2.739 2.607-2.739 1.438 0 2.608 1.23 2.608 2.74 0 1.51-1.17 2.739-2.608 2.739z" fill="#000"/><path d="M17.073 3.077C15.183 1.093 12.673 0 10 0 7.329 0 4.818 1.093 2.929 3.077-.566 6.75-1 13.658 1.99 17.844L10 30l8-12.14c3.002-4.202 2.567-11.11-.928-14.783zm.082 14.143l-7.154 10.855-7.166-10.872C.124 13.405.512 7.166 3.667 3.853c1.692-1.778 3.941-2.757 6.334-2.757s4.642.979 6.334 2.756c3.155 3.314 3.544 9.553.82 13.368z" fill="#000"/></svg>
